img/icons/icon-pagination.svg

<svg xmlns="http://www.w3.org/2000/svg" width="8" height="12" fill="none">
  <path fill="#C1C6CE" d="M7.23703 5.6931L1.72903.971099c-.19771-.169473-.51828-.169473-.716 0-.197713.169471-.197713.444241 0 .613711l5.15 4.41515-5.151 4.41424c-.185513.1712-.179893.4375.01273.6029.19262.1653.50328.1705.70327.0117l5.509-4.72199c.09552-.08112.14925-.1916.14925-.30685 0-.11526-.05373-.22574-.14925-.30686z"/>
</svg>

<svg width="8" height="12" viewBox="0 0 8 12" fill="none" xmlns="http://www.w3.org/2000/svg">
<path d="M7.23703 5.6931L1.72903 0.971099C1.53132 0.801626 1.21075 0.801626 1.01303 0.971099C0.815317 1.14057 0.815317 1.41534 1.01303 1.58481L6.16303 5.99996L1.01203 10.4142C0.826517 10.5854 0.832137 10.8517 1.02476 11.0171C1.21738 11.1824 1.52804 11.1876 1.72803 11.0288L7.23703 6.30681C7.33255 6.22569 7.38628 6.11521 7.38628 5.99996C7.38628 5.8847 7.33255 5.77422 7.23703 5.6931Z" fill="#C1C6CE"/>
</svg>
